Facebook.svg

<?xml version="1.0"?>
<svg class="icon icon-facebook" xmlns="http://www.w3.org/2000/svg" width="16" height="16" viewBox="0 0 16 16">
  <path class="background" fill="#3b5999" d="M 0.875,0 C 0.38722,0 0,0.38721 0,0.875 l 0,14.25 C 0,15.61266 0.38715,16 0.875,16 l 7.65625,0 0,-6.1875 -2.0625,0 0,-2.4375 2.0625,0 0,-1.78125 c 0,-2.06656 1.2814395,-3.1875 3.125,-3.1875 0.88307,0 1.62261,0.06435 1.84375,0.09375 l 0,2.15625 -1.25,0.03125 c -1.00252,0 -1.21875,0.45713 -1.21875,1.15625 l 0,1.53125 2.40625,0 -0.3125,2.4375 -2.09375,0 0,6.1875 4.09375,0 C 15.612599,16 16,15.61272 16,15.125 L 16,0.875 C 16,0.38721 15.61266,0 15.125,0 L 0.875,0 z"/>
  <path class="foreground" fill="white" d="m 11.03968,16.000001 v -6.19608 h 2.07973 l 0.31141,-2.41472 h -2.39114 v -1.54165 c 0,-0.69912 0.19414,-1.17555 1.19666,-1.17555 l 1.27866,-5.6e-4 v -2.15974 c -0.22114,-0.0294 -0.98017,-0.0952 -1.86324,-0.0952 -1.8435605,0 -3.1057105,1.12532 -3.1057105,3.19188 v 1.7808 h -2.08506 v 2.41472 h 2.08506 v 6.19608 H 11.03968 z"/>
</svg>

<?xml version="1.0"?>
<svg xmlns="http://www.w3.org/2000/svg" width="16" height="16" viewBox="0 0 16 16">
  <path fill="#3b5999" d="M 0.875 0 C 0.38722 0 0 0.38721 0 0.875 L 0 15.125 C 0 15.61266 0.38715 16 0.875 16 L 8.53125 16 L 8.53125 9.8125 L 6.46875 9.8125 L 6.46875 7.375 L 8.53125 7.375 L 8.53125 5.59375 C 8.53125 3.52719 9.8126895 2.40625 11.65625 2.40625 C 12.53932 2.40625 13.27886 2.4706 13.5 2.5 L 13.5 4.65625 L 12.25 4.6875 C 11.24748 4.6875 11.03125 5.14463 11.03125 5.84375 L 11.03125 7.375 L 13.4375 7.375 L 13.125 9.8125 L 11.03125 9.8125 L 11.03125 16 L 15.125 16 C 15.612599 16 16 15.61272 16 15.125 L 16 0.875 C 16 0.38721 15.61266 7.2280145e-020 15.125 0 L 0.875 0 z "/>
</svg>
